X:1
T:Angeline the Baker
M:2/2
L:1/8
K:D
dB|:"D"A2B2 d3 A|B2 (d d) B2|A2B2 dB A2|"G"B4 B4|
"D"A2B2 d3e|f2e2 d2e2|"G"f2e2 "D"d2B2|1"D"A4 A4:|2"A"A3 B A2 fg
||:"D"a2f2 e2de|f2e2 d4|a2f2 edB2|"G"d4 d4|"D"a2f2 e2de|f2e2 d2e2|
"G"f2e2 d2B2|"A"A4 A4:||
